X: 15720
T: Golden Stud, The
R: reel
M: 4/4
K: Eminor
|:EFGE FGAF|GABG ABcA|BAGB AGFA|GEFD E2E2:|
|:c2 AB cBAc|B2 AB BAGB|A2 FG AGFA|GE FD E2 E2:|

